svg/vk.svg

<svg xmlns="http://www.w3.org/2000/svg" viewBox="0 0 24 24"><path d="M15.07 2H8.93C3.33 2 2 3.33 2 8.93v6.14C2 20.67 3.33 22 8.93 22h6.14c5.6 0 6.93-1.33 6.93-6.93V8.93C22 3.33 20.67 2 15.07 2m3.08 14.27h-1.46c-.55 0-.72-.45-1.69-1.44-.88-.83-1.26-.95-1.47-.95-.29 0-.38.08-.38.5v1.31c0 .35-.11.57-1.04.57-1.54 0-3.25-.94-4.45-2.67-1.81-2.54-2.3-4.46-2.3-4.84 0-.21.07-.41.49-.41h1.47c.37 0 .51.16.65.56.72 2.1 1.92 3.9 2.41 3.9.19 0 .27-.09.27-.55V10.1c-.05-.98-.58-1.07-.58-1.42 0-.18.14-.34.37-.34h2.29c.31 0 .42.16.42.54v2.89c0 .31.13.42.23.42.18 0 .34-.11.67-.45 1.05-1.17 1.8-2.98 1.8-2.98.1-.21.26-.41.65-.41h1.43c.44 0 .54.23.44.54-.18.85-1.96 3.36-1.94 3.36-.16.25-.22.36 0 .65.15.21.66.65 1 1.04.62.71 1.1 1.3 1.23 1.71.11.41-.09.62-.51.62"/></svg>

<?xml version="1.0" encoding="UTF-8"?><!DOCTYPE svg PUBLIC "-//W3C//DTD SVG 1.1//EN" "http://www.w3.org/Graphics/SVG/1.1/DTD/svg11.dtd"><svg xmlns="http://www.w3.org/2000/svg" xmlns:xlink="http://www.w3.org/1999/xlink" version="1.1" id="mdi-vk" width="24" height="24" viewBox="0 0 24 24"><path d="M15.07 2H8.93C3.33 2 2 3.33 2 8.93V15.07C2 20.67 3.33 22 8.93 22H15.07C20.67 22 22 20.67 22 15.07V8.93C22 3.33 20.67 2 15.07 2M18.15 16.27H16.69C16.14 16.27 15.97 15.82 15 14.83C14.12 14 13.74 13.88 13.53 13.88C13.24 13.88 13.15 13.96 13.15 14.38V15.69C13.15 16.04 13.04 16.26 12.11 16.26C10.57 16.26 8.86 15.32 7.66 13.59C5.85 11.05 5.36 9.13 5.36 8.75C5.36 8.54 5.43 8.34 5.85 8.34H7.32C7.69 8.34 7.83 8.5 7.97 8.9C8.69 11 9.89 12.8 10.38 12.8C10.57 12.8 10.65 12.71 10.65 12.25V10.1C10.6 9.12 10.07 9.03 10.07 8.68C10.07 8.5 10.21 8.34 10.44 8.34H12.73C13.04 8.34 13.15 8.5 13.15 8.88V11.77C13.15 12.08 13.28 12.19 13.38 12.19C13.56 12.19 13.72 12.08 14.05 11.74C15.1 10.57 15.85 8.76 15.85 8.76C15.95 8.55 16.11 8.35 16.5 8.35H17.93C18.37 8.35 18.47 8.58 18.37 8.89C18.19 9.74 16.41 12.25 16.43 12.25C16.27 12.5 16.21 12.61 16.43 12.9C16.58 13.11 17.09 13.55 17.43 13.94C18.05 14.65 18.53 15.24 18.66 15.65C18.77 16.06 18.57 16.27 18.15 16.27Z" /></svg>
